images/3233087.svg

<?xml version="1.0" encoding="UTF-8"?>
<svg xmlns="http://www.w3.org/2000/svg" xmlns:xlink="http://www.w3.org/1999/xlink" width="300pt" height="300pt" viewBox="0 0 300 300" version="1.1">
<defs>
<g>
<symbol overflow="visible" id="glyph0-0">
<path style="stroke:none;" d="M 0.546875 1.9375 L 0.546875 -7.75 L 6.046875 -7.75 L 6.046875 1.9375 Z M 1.171875 1.328125 L 5.4375 1.328125 L 5.4375 -7.140625 L 1.171875 -7.140625 Z M 1.171875 1.328125 "/>
</symbol>
<symbol overflow="visible" id="glyph0-1">
<path style="stroke:none;" d="M 4.328125 -7.28125 C 3.546875 -7.28125 2.921875 -6.984375 2.453125 -6.390625 C 1.992188 -5.804688 1.765625 -5.007812 1.765625 -4 C 1.765625 -2.988281 1.992188 -2.1875 2.453125 -1.59375 C 2.921875 -1.007812 3.546875 -0.71875 4.328125 -0.71875 C 5.117188 -0.71875 5.742188 -1.007812 6.203125 -1.59375 C 6.660156 -2.1875 6.890625 -2.988281 6.890625 -4 C 6.890625 -5.007812 6.660156 -5.804688 6.203125 -6.390625 C 5.742188 -6.984375 5.117188 -7.28125 4.328125 -7.28125 Z M 4.328125 -8.171875 C 5.453125 -8.171875 6.351562 -7.789062 7.03125 -7.03125 C 7.707031 -6.28125 8.046875 -5.269531 8.046875 -4 C 8.046875 -2.738281 7.707031 -1.726562 7.03125 -0.96875 C 6.351562 -0.21875 5.453125 0.15625 4.328125 0.15625 C 3.203125 0.15625 2.300781 -0.21875 1.625 -0.96875 C 0.957031 -1.71875 0.625 -2.726562 0.625 -4 C 0.625 -5.269531 0.957031 -6.28125 1.625 -7.03125 C 2.300781 -7.789062 3.203125 -8.171875 4.328125 -8.171875 Z M 4.328125 -8.171875 "/>
</symbol>
<symbol overflow="visible" id="glyph0-2">
<path style="stroke:none;" d="M 1.078125 -8.015625 L 2.546875 -8.015625 L 6.09375 -1.3125 L 6.09375 -8.015625 L 7.15625 -8.015625 L 7.15625 0 L 5.6875 0 L 2.125 -6.703125 L 2.125 0 L 1.078125 0 Z M 1.078125 -8.015625 "/>
</symbol>
<symbol overflow="visible" id="glyph0-3">
<path style="stroke:none;" d="M 1.078125 -8.015625 L 2.171875 -8.015625 L 2.171875 -4.734375 L 6.109375 -4.734375 L 6.109375 -8.015625 L 7.1875 -8.015625 L 7.1875 0 L 6.109375 0 L 6.109375 -3.8125 L 2.171875 -3.8125 L 2.171875 0 L 1.078125 0 Z M 1.078125 -8.015625 "/>
</symbol>
</g>
</defs>
<g id="surface39405">
<rect x="0" y="0" width="300" height="300" style="fill:rgb(100%,100%,100%);fill-opacity:1;stroke:none;"/>
<path style="fill:none;stroke-width:1.2;stroke-linecap:butt;stroke-linejoin:miter;stroke:rgb(0%,0%,0%);stroke-opacity:1;stroke-miterlimit:10;" d="M 245.015625 52.917969 L 242.777344 79.582031 "/>
<path style="fill:none;stroke-width:1.2;stroke-linecap:butt;stroke-linejoin:miter;stroke:rgb(0%,0%,0%);stroke-opacity:1;stroke-miterlimit:10;" d="M 240.980469 82.167969 L 251.96875 89.800781 "/>
<path style="fill:none;stroke-width:1.2;stroke-linecap:butt;stroke-linejoin:miter;stroke:rgb(100%,0%,0%);stroke-opacity:1;stroke-miterlimit:10;" d="M 251.96875 89.800781 L 262.953125 97.4375 "/>
<path style="fill:none;stroke-width:1.2;stroke-linecap:butt;stroke-linejoin:miter;stroke:rgb(0%,0%,0%);stroke-opacity:1;stroke-miterlimit:10;" d="M 244.574219 76.996094 L 255.558594 84.632812 "/>
<path style="fill:none;stroke-width:1.2;stroke-linecap:butt;stroke-linejoin:miter;stroke:rgb(100%,0%,0%);stroke-opacity:1;stroke-miterlimit:10;" d="M 255.558594 84.632812 L 266.546875 92.265625 "/>
<path style="fill:none;stroke-width:1.2;stroke-linecap:butt;stroke-linejoin:miter;stroke:rgb(0%,0%,0%);stroke-opacity:1;stroke-miterlimit:10;" d="M 242.777344 79.582031 L 230.671875 85.277344 "/>
<path style="fill:none;stroke-width:1.2;stroke-linecap:butt;stroke-linejoin:miter;stroke:rgb(0%,0%,100%);stroke-opacity:1;stroke-miterlimit:10;" d="M 230.671875 85.277344 L 218.566406 90.976562 "/>
<path style=" stroke:none;fill-rule:nonzero;fill:rgb(100%,100%,100%);fill-opacity:1;" d="M 260.75 88.351562 L 269.75 88.351562 L 269.75 101.351562 L 260.75 101.351562 Z M 260.75 88.351562 "/>
<g style="fill:rgb(100%,0%,0%);fill-opacity:1;">
  <use xlink:href="#glyph0-1" x="260.75" y="98.25293"/>
</g>
<path style="fill:none;stroke-width:1.2;stroke-linecap:butt;stroke-linejoin:miter;stroke:rgb(0%,0%,100%);stroke-opacity:1;stroke-miterlimit:10;" d="M 218.566406 90.976562 L 217.449219 104.308594 "/>
<path style="fill:none;stroke-width:1.2;stroke-linecap:butt;stroke-linejoin:miter;stroke:rgb(0%,0%,0%);stroke-opacity:1;stroke-miterlimit:10;" d="M 217.449219 104.308594 L 216.328125 117.640625 "/>
<path style=" stroke:none;fill-rule:nonzero;fill:rgb(100%,100%,100%);fill-opacity:1;" d="M 210.566406 84.476562 L 227.566406 84.476562 L 227.566406 97.476562 L 210.566406 97.476562 Z M 210.566406 84.476562 "/>
<g style="fill:rgb(0%,0%,100%);fill-opacity:1;">
  <use xlink:href="#glyph0-2" x="210.566406" y="94.37793"/>
  <use xlink:href="#glyph0-3" x="218.549805" y="94.37793"/>
</g>
<path style="fill:none;stroke-width:1.2;stroke-linecap:butt;stroke-linejoin:miter;stroke:rgb(0%,0%,0%);stroke-opacity:1;stroke-miterlimit:10;" d="M 216.328125 117.640625 L 192.117188 129.03125 "/>
<path style="fill:none;stroke-width:1.2;stroke-linecap:butt;stroke-linejoin:miter;stroke:rgb(0%,0%,0%);stroke-opacity:1;stroke-miterlimit:10;" d="M 192.117188 129.03125 L 191 142.363281 "/>
<path style="fill:none;stroke-width:1.2;stroke-linecap:butt;stroke-linejoin:miter;stroke:rgb(0%,0%,100%);stroke-opacity:1;stroke-miterlimit:10;" d="M 191 142.363281 L 189.878906 155.695312 "/>
<path style="fill:none;stroke-width:1.2;stroke-linecap:butt;stroke-linejoin:miter;stroke:rgb(0%,0%,100%);stroke-opacity:1;stroke-miterlimit:10;" d="M 189.878906 155.695312 L 177.773438 161.394531 "/>
<path style="fill:none;stroke-width:1.2;stroke-linecap:butt;stroke-linejoin:miter;stroke:rgb(0%,0%,0%);stroke-opacity:1;stroke-miterlimit:10;" d="M 177.773438 161.394531 L 165.667969 167.089844 "/>
<path style=" stroke:none;fill-rule:nonzero;fill:rgb(100%,100%,100%);fill-opacity:1;" d="M 181.878906 149.195312 L 198.878906 149.195312 L 198.878906 162.195312 L 181.878906 162.195312 Z M 181.878906 149.195312 "/>
<g style="fill:rgb(0%,0%,100%);fill-opacity:1;">
  <use xlink:href="#glyph0-2" x="181.878906" y="159.09668"/>
  <use xlink:href="#glyph0-3" x="189.862305" y="159.09668"/>
</g>
<path style="fill:none;stroke-width:1.2;stroke-linecap:butt;stroke-linejoin:miter;stroke:rgb(0%,0%,0%);stroke-opacity:1;stroke-miterlimit:10;" d="M 165.667969 167.089844 L 154.683594 159.457031 "/>
<path style="fill:none;stroke-width:1.2;stroke-linecap:butt;stroke-linejoin:miter;stroke:rgb(0%,0%,100%);stroke-opacity:1;stroke-miterlimit:10;" d="M 154.683594 159.457031 L 143.695312 151.820312 "/>
<path style="fill:none;stroke-width:1.2;stroke-linecap:butt;stroke-linejoin:miter;stroke:rgb(0%,0%,0%);stroke-opacity:1;stroke-miterlimit:10;" d="M 159.878906 170.734375 L 151.089844 164.625 "/>
<path style="fill:none;stroke-width:1.2;stroke-linecap:butt;stroke-linejoin:miter;stroke:rgb(0%,0%,100%);stroke-opacity:1;stroke-miterlimit:10;" d="M 151.089844 164.625 L 142.300781 158.519531 "/>
<path style="fill:none;stroke-width:1.2;stroke-linecap:butt;stroke-linejoin:miter;stroke:rgb(0%,0%,0%);stroke-opacity:1;stroke-miterlimit:10;" d="M 163.429688 193.753906 L 165.667969 167.089844 "/>
<path style="fill:none;stroke-width:1.2;stroke-linecap:butt;stroke-linejoin:miter;stroke:rgb(0%,0%,100%);stroke-opacity:1;stroke-miterlimit:10;" d="M 143.695312 151.820312 L 131.589844 157.519531 "/>
<path style="fill:none;stroke-width:1.2;stroke-linecap:butt;stroke-linejoin:miter;stroke:rgb(0%,0%,0%);stroke-opacity:1;stroke-miterlimit:10;" d="M 131.589844 157.519531 L 119.484375 163.214844 "/>
<path style=" stroke:none;fill-rule:nonzero;fill:rgb(100%,100%,100%);fill-opacity:1;" d="M 139.695312 145.320312 L 147.695312 145.320312 L 147.695312 158.320312 L 139.695312 158.320312 Z M 139.695312 145.320312 "/>
<g style="fill:rgb(0%,0%,100%);fill-opacity:1;">
  <use xlink:href="#glyph0-2" x="139.695312" y="155.22168"/>
</g>
<path style="fill:none;stroke-width:1.2;stroke-linecap:butt;stroke-linejoin:miter;stroke:rgb(0%,0%,0%);stroke-opacity:1;stroke-miterlimit:10;" d="M 119.484375 163.214844 L 118.367188 176.546875 "/>
<path style="fill:none;stroke-width:1.2;stroke-linecap:butt;stroke-linejoin:miter;stroke:rgb(0%,0%,100%);stroke-opacity:1;stroke-miterlimit:10;" d="M 118.367188 176.546875 L 117.246094 189.878906 "/>
<path style="fill:none;stroke-width:1.2;stroke-linecap:butt;stroke-linejoin:miter;stroke:rgb(0%,0%,0%);stroke-opacity:1;stroke-miterlimit:10;" d="M 125.535156 166.40625 L 124.640625 177.074219 "/>
<path style="fill:none;stroke-width:1.2;stroke-linecap:butt;stroke-linejoin:miter;stroke:rgb(0%,0%,100%);stroke-opacity:1;stroke-miterlimit:10;" d="M 124.640625 177.074219 L 123.746094 187.738281 "/>
<path style="fill:none;stroke-width:1.2;stroke-linecap:butt;stroke-linejoin:miter;stroke:rgb(0%,0%,0%);stroke-opacity:1;stroke-miterlimit:10;" d="M 119.484375 163.214844 L 97.511719 147.945312 "/>
<path style="fill:none;stroke-width:1.2;stroke-linecap:butt;stroke-linejoin:miter;stroke:rgb(0%,0%,100%);stroke-opacity:1;stroke-miterlimit:10;" d="M 117.246094 189.878906 L 128.234375 197.511719 "/>
<path style="fill:none;stroke-width:1.2;stroke-linecap:butt;stroke-linejoin:miter;stroke:rgb(0%,0%,0%);stroke-opacity:1;stroke-miterlimit:10;" d="M 128.234375 197.511719 L 139.21875 205.148438 "/>
<path style=" stroke:none;fill-rule:nonzero;fill:rgb(100%,100%,100%);fill-opacity:1;" d="M 113.246094 183.378906 L 121.246094 183.378906 L 121.246094 196.378906 L 113.246094 196.378906 Z M 113.246094 183.378906 "/>
<g style="fill:rgb(0%,0%,100%);fill-opacity:1;">
  <use xlink:href="#glyph0-2" x="113.246094" y="193.280273"/>
</g>
<path style="fill:none;stroke-width:1.2;stroke-linecap:butt;stroke-linejoin:miter;stroke:rgb(0%,0%,0%);stroke-opacity:1;stroke-miterlimit:10;" d="M 139.21875 205.148438 L 136.984375 231.8125 "/>
<path style="fill:none;stroke-width:1.2;stroke-linecap:butt;stroke-linejoin:miter;stroke:rgb(0%,0%,0%);stroke-opacity:1;stroke-miterlimit:10;" d="M 145.269531 208.339844 L 143.480469 229.671875 "/>
<path style="fill:none;stroke-width:1.2;stroke-linecap:butt;stroke-linejoin:miter;stroke:rgb(0%,0%,0%);stroke-opacity:1;stroke-miterlimit:10;" d="M 163.429688 193.753906 L 139.21875 205.148438 "/>
<path style="fill:none;stroke-width:1.2;stroke-linecap:butt;stroke-linejoin:miter;stroke:rgb(0%,0%,0%);stroke-opacity:1;stroke-miterlimit:10;" d="M 136.984375 231.8125 L 158.957031 247.082031 "/>
<path style="fill:none;stroke-width:1.2;stroke-linecap:butt;stroke-linejoin:miter;stroke:rgb(0%,0%,0%);stroke-opacity:1;stroke-miterlimit:10;" d="M 158.957031 247.082031 L 183.167969 235.6875 "/>
<path style="fill:none;stroke-width:1.2;stroke-linecap:butt;stroke-linejoin:miter;stroke:rgb(0%,0%,0%);stroke-opacity:1;stroke-miterlimit:10;" d="M 158.695312 240.246094 L 178.0625 231.132812 "/>
<path style="fill:none;stroke-width:1.2;stroke-linecap:butt;stroke-linejoin:miter;stroke:rgb(0%,0%,0%);stroke-opacity:1;stroke-miterlimit:10;" d="M 183.167969 235.6875 L 185.402344 209.023438 "/>
<path style="fill:none;stroke-width:1.2;stroke-linecap:butt;stroke-linejoin:miter;stroke:rgb(0%,0%,0%);stroke-opacity:1;stroke-miterlimit:10;" d="M 185.402344 209.023438 L 163.429688 193.753906 "/>
<path style="fill:none;stroke-width:1.2;stroke-linecap:butt;stroke-linejoin:miter;stroke:rgb(0%,0%,0%);stroke-opacity:1;stroke-miterlimit:10;" d="M 179.613281 212.667969 L 162.035156 200.453125 "/>
<path style="fill:none;stroke-width:1.2;stroke-linecap:butt;stroke-linejoin:miter;stroke:rgb(0%,0%,0%);stroke-opacity:1;stroke-miterlimit:10;" d="M 97.511719 147.945312 L 99.75 121.28125 "/>
<path style="fill:none;stroke-width:1.2;stroke-linecap:butt;stroke-linejoin:miter;stroke:rgb(0%,0%,0%);stroke-opacity:1;stroke-miterlimit:10;" d="M 91.464844 144.75 L 93.253906 123.421875 "/>
<path style="fill:none;stroke-width:1.2;stroke-linecap:butt;stroke-linejoin:miter;stroke:rgb(0%,0%,0%);stroke-opacity:1;stroke-miterlimit:10;" d="M 73.300781 159.339844 L 97.511719 147.945312 "/>
<path style="fill:none;stroke-width:1.2;stroke-linecap:butt;stroke-linejoin:miter;stroke:rgb(0%,0%,0%);stroke-opacity:1;stroke-miterlimit:10;" d="M 99.75 121.28125 L 77.777344 106.011719 "/>
<path style="fill:none;stroke-width:1.2;stroke-linecap:butt;stroke-linejoin:miter;stroke:rgb(0%,0%,0%);stroke-opacity:1;stroke-miterlimit:10;" d="M 77.777344 106.011719 L 53.566406 117.402344 "/>
<path style="fill:none;stroke-width:1.2;stroke-linecap:butt;stroke-linejoin:miter;stroke:rgb(0%,0%,0%);stroke-opacity:1;stroke-miterlimit:10;" d="M 72.675781 101.453125 L 53.308594 110.566406 "/>
<path style="fill:none;stroke-width:1.2;stroke-linecap:butt;stroke-linejoin:miter;stroke:rgb(100%,0%,0%);stroke-opacity:1;stroke-miterlimit:10;" d="M 74.421875 79.464844 L 76.101562 92.738281 "/>
<path style="fill:none;stroke-width:1.2;stroke-linecap:butt;stroke-linejoin:miter;stroke:rgb(0%,0%,0%);stroke-opacity:1;stroke-miterlimit:10;" d="M 76.101562 92.738281 L 77.777344 106.011719 "/>
<path style="fill:none;stroke-width:1.2;stroke-linecap:butt;stroke-linejoin:miter;stroke:rgb(0%,0%,0%);stroke-opacity:1;stroke-miterlimit:10;" d="M 53.566406 117.402344 L 51.328125 144.066406 "/>
<path style="fill:none;stroke-width:1.2;stroke-linecap:butt;stroke-linejoin:miter;stroke:rgb(0%,0%,0%);stroke-opacity:1;stroke-miterlimit:10;" d="M 53.566406 117.402344 L 44.410156 107.652344 "/>
<path style="fill:none;stroke-width:1.2;stroke-linecap:butt;stroke-linejoin:miter;stroke:rgb(100%,0%,0%);stroke-opacity:1;stroke-miterlimit:10;" d="M 44.410156 107.652344 L 35.25 97.898438 "/>
<path style="fill:none;stroke-width:1.2;stroke-linecap:butt;stroke-linejoin:miter;stroke:rgb(0%,0%,0%);stroke-opacity:1;stroke-miterlimit:10;" d="M 51.328125 144.066406 L 73.300781 159.339844 "/>
<path style="fill:none;stroke-width:1.2;stroke-linecap:butt;stroke-linejoin:miter;stroke:rgb(0%,0%,0%);stroke-opacity:1;stroke-miterlimit:10;" d="M 57.121094 140.425781 L 74.699219 152.640625 "/>
<path style="fill:none;stroke-width:1.2;stroke-linecap:butt;stroke-linejoin:miter;stroke:rgb(100%,0%,0%);stroke-opacity:1;stroke-miterlimit:10;" d="M 35.25 97.898438 L 41.695312 86.175781 "/>
<path style="fill:none;stroke-width:1.2;stroke-linecap:butt;stroke-linejoin:miter;stroke:rgb(0%,0%,0%);stroke-opacity:1;stroke-miterlimit:10;" d="M 41.695312 86.175781 L 48.140625 74.449219 "/>
<path style=" stroke:none;fill-rule:nonzero;fill:rgb(100%,100%,100%);fill-opacity:1;" d="M 31.25 91.398438 L 40.25 91.398438 L 40.25 104.398438 L 31.25 104.398438 Z M 31.25 91.398438 "/>
<g style="fill:rgb(100%,0%,0%);fill-opacity:1;">
  <use xlink:href="#glyph0-1" x="31.25" y="101.299805"/>
</g>
<path style="fill:none;stroke-width:1.2;stroke-linecap:butt;stroke-linejoin:miter;stroke:rgb(0%,0%,0%);stroke-opacity:1;stroke-miterlimit:10;" d="M 48.140625 74.449219 L 61.28125 76.957031 "/>
<path style="fill:none;stroke-width:1.2;stroke-linecap:butt;stroke-linejoin:miter;stroke:rgb(100%,0%,0%);stroke-opacity:1;stroke-miterlimit:10;" d="M 61.28125 76.957031 L 74.421875 79.464844 "/>
<path style=" stroke:none;fill-rule:nonzero;fill:rgb(100%,100%,100%);fill-opacity:1;" d="M 70.421875 72.964844 L 79.421875 72.964844 L 79.421875 85.964844 L 70.421875 85.964844 Z M 70.421875 72.964844 "/>
<g style="fill:rgb(100%,0%,0%);fill-opacity:1;">
  <use xlink:href="#glyph0-1" x="70.421875" y="82.866211"/>
</g>
</g>
</svg>

<svg xmlns="http://www.w3.org/2000/svg" xmlns:xlink="http://www.w3.org/1999/xlink" width="300pt" height="300pt" viewBox="0 0 300 300"><defs><symbol overflow="visible"><path d="M.547 1.938V-7.75h5.5v9.688zm.625-.61h4.266v-8.47H1.171zm0 0"/></symbol><symbol overflow="visible" id="a"><path d="M4.328-7.28c-.78 0-1.406.296-1.875.89-.46.585-.687 1.382-.687 2.39 0 1.012.226 1.813.687 2.406.47.586 1.094.875 1.875.875.79 0 1.414-.288 1.875-.874.457-.593.688-1.394.688-2.406 0-1.008-.23-1.805-.687-2.39-.46-.594-1.086-.89-1.875-.89zm0-.892c1.125 0 2.024.383 2.703 1.14C7.708-6.28 8.048-5.27 8.048-4c0 1.262-.34 2.273-1.016 3.03C6.353-.22 5.454.157 4.33.157S2.3-.22 1.625-.97c-.668-.75-1-1.757-1-3.03 0-1.27.332-2.28 1-3.03.676-.76 1.578-1.142 2.703-1.142zm0 0"/></symbol><symbol overflow="visible" id="b"><path d="M1.078-8.016h1.47l3.546 6.704v-6.704h1.062V0H5.688L2.124-6.703V0H1.078zm0 0"/></symbol><symbol overflow="visible" id="c"><path d="M1.078-8.016h1.094v3.282H6.11v-3.282h1.077V0H6.11v-3.813H2.17V0H1.078zm0 0"/></symbol></defs><g><path fill="#fff" d="M0 0h300v300H0z"/><path d="M245.016 52.918l-2.24 26.664M240.98 82.168l10.99 7.633" stroke-width="1.2" stroke="#000" stroke-miterlimit="10" fill="none"/><path d="M251.97 89.8l10.983 7.638" stroke-width="1.2" stroke="#f00" stroke-miterlimit="10" fill="none"/><path d="M244.574 76.996l10.985 7.637" stroke-width="1.2" stroke="#000" stroke-miterlimit="10" fill="none"/><path d="M255.56 84.633l10.987 7.633" stroke-width="1.2" stroke="#f00" stroke-miterlimit="10" fill="none"/><path d="M242.777 79.582l-12.105 5.695" stroke-width="1.2" stroke="#000" stroke-miterlimit="10" fill="none"/><path d="M230.672 85.277l-12.106 5.7" stroke-width="1.2" stroke="#00f" stroke-miterlimit="10" fill="none"/><path d="M260.75 88.352h9v13h-9zm0 0" fill="#fff"/><use xlink:href="#a" x="260.75" y="98.253" fill="#f00"/><path d="M218.566 90.977l-1.117 13.332" stroke-width="1.2" stroke="#00f" stroke-miterlimit="10" fill="none"/><path d="M217.45 104.31l-1.122 13.33" stroke-width="1.2" stroke="#000" stroke-miterlimit="10" fill="none"/><path d="M210.566 84.477h17v13h-17zm0 0" fill="#fff"/><g fill="#00f"><use xlink:href="#b" x="210.566" y="94.378"/><use xlink:href="#c" x="218.55" y="94.378"/></g><path d="M216.328 117.64l-24.21 11.39M192.117 129.03L191 142.364" stroke-width="1.2" stroke="#000" stroke-miterlimit="10" fill="none"/><path d="M191 142.363l-1.12 13.332M189.88 155.695l-12.107 5.7" stroke-width="1.2" stroke="#00f" stroke-miterlimit="10" fill="none"/><path d="M177.773 161.395l-12.105 5.695" stroke-width="1.2" stroke="#000" stroke-miterlimit="10" fill="none"/><path d="M181.88 149.195h17v13h-17zm0 0" fill="#fff"/><g fill="#00f"><use xlink:href="#b" x="181.879" y="159.097"/><use xlink:href="#c" x="189.862" y="159.097"/></g><path d="M165.668 167.09l-10.984-7.633" stroke-width="1.2" stroke="#000" stroke-miterlimit="10" fill="none"/><path d="M154.684 159.457l-10.99-7.637" stroke-width="1.2" stroke="#00f" stroke-miterlimit="10" fill="none"/><path d="M159.88 170.734l-8.79-6.11" stroke-width="1.2" stroke="#000" stroke-miterlimit="10" fill="none"/><path d="M151.09 164.625l-8.79-6.105" stroke-width="1.2" stroke="#00f" stroke-miterlimit="10" fill="none"/><path d="M163.43 193.754l2.238-26.664" stroke-width="1.2" stroke="#000" stroke-miterlimit="10" fill="none"/><path d="M143.695 151.82l-12.105 5.7" stroke-width="1.2" stroke="#00f" stroke-miterlimit="10" fill="none"/><path d="M131.59 157.52l-12.106 5.695" stroke-width="1.2" stroke="#000" stroke-miterlimit="10" fill="none"/><path d="M139.695 145.32h8v13h-8zm0 0" fill="#fff"/><use xlink:href="#b" x="139.695" y="155.222" fill="#00f"/><path d="M119.484 163.215l-1.117 13.332" stroke-width="1.2" stroke="#000" stroke-miterlimit="10" fill="none"/><path d="M118.367 176.547l-1.12 13.332" stroke-width="1.2" stroke="#00f" stroke-miterlimit="10" fill="none"/><path d="M125.535 166.406l-.894 10.668" stroke-width="1.2" stroke="#000" stroke-miterlimit="10" fill="none"/><path d="M124.64 177.074l-.894 10.664" stroke-width="1.2" stroke="#00f" stroke-miterlimit="10" fill="none"/><path d="M119.484 163.215l-21.972-15.27" stroke-width="1.2" stroke="#000" stroke-miterlimit="10" fill="none"/><path d="M117.246 189.88l10.988 7.632" stroke-width="1.2" stroke="#00f" stroke-miterlimit="10" fill="none"/><path d="M128.234 197.512l10.985 7.636" stroke-width="1.2" stroke="#000" stroke-miterlimit="10" fill="none"/><path d="M113.246 183.38h8v13h-8zm0 0" fill="#fff"/><use xlink:href="#b" x="113.246" y="193.28" fill="#00f"/><path d="M139.22 205.148l-2.236 26.665M145.27 208.34l-1.79 21.332M163.43 193.754l-24.21 11.394M136.984 231.813l21.973 15.27M158.957 247.082l24.21-11.394M158.695 240.246l19.368-9.113M183.168 235.688l2.234-26.665M185.402 209.023l-21.972-15.27M179.613 212.668l-17.578-12.215M97.512 147.945l2.238-26.664M91.465 144.75l1.79-21.328M73.3 159.34l24.212-11.395M99.75 121.28l-21.973-15.268M77.777 106.012l-24.21 11.39M72.676 101.453l-19.367 9.113" stroke-width="1.2" stroke="#000" stroke-miterlimit="10" fill="none"/><path d="M74.422 79.465l1.68 13.273" stroke-width="1.2" stroke="#f00" stroke-miterlimit="10" fill="none"/><path d="M76.102 92.738l1.675 13.274M53.566 117.402l-2.238 26.664M53.566 117.402l-9.156-9.75" stroke-width="1.2" stroke="#000" stroke-miterlimit="10" fill="none"/><path d="M44.41 107.652l-9.16-9.754" stroke-width="1.2" stroke="#f00" stroke-miterlimit="10" fill="none"/><path d="M51.328 144.066L73.3 159.34M57.12 140.426L74.7 152.64" stroke-width="1.2" stroke="#000" stroke-miterlimit="10" fill="none"/><path d="M35.25 97.898l6.445-11.722" stroke-width="1.2" stroke="#f00" stroke-miterlimit="10" fill="none"/><path d="M41.695 86.176L48.14 74.45" stroke-width="1.2" stroke="#000" stroke-miterlimit="10" fill="none"/><path d="M31.25 91.398h9v13h-9zm0 0" fill="#fff"/><use xlink:href="#a" x="31.25" y="101.3" fill="#f00"/><path d="M48.14 74.45l13.14 2.507" stroke-width="1.2" stroke="#000" stroke-miterlimit="10" fill="none"/><path d="M61.28 76.957l13.142 2.508" stroke-width="1.2" stroke="#f00" stroke-miterlimit="10" fill="none"/><path d="M70.422 72.965h9v13h-9zm0 0" fill="#fff"/><use xlink:href="#a" x="70.422" y="82.866" fill="#f00"/></g></svg>
